!!!!SEGMENT: pl-kk--kk-i-3--031_anonim--alleluia-ave-gratia-plena.krn
!!!cenid: 15xx:639
!!!COM: Anonim
!!!COM-rismid: pe30004985
!!!CDT:
!!!CNT:
!!!OTL: Alleluia, Ave gratia plena
!!!PDT:
!!!AGN:
!!!SMS-siglum: PL-Kk
!!!SMS-shelfmark: Kk.I.3
!!!SMS-shelfwork: 031 W
!!!SMS-variant:
!!!SMS-altvar:
!!!NIFC-rismid: 1001145533
!!!URL-scan: http://repozytorium.nifc.pl/skany/pl-kk-nut--i-3
!!!ONB-nifc: UWAGA: Discantus (s. 100r-101r, skan 0102-0103), Tenor (s. 74v-75r, skan 0247), Bassus (s. 97v-98v, skan 0401-0402)
!!!key: G:mix
**kern	**text	**text	**kern	**text	**text	**kern	**text	**text
*part3	*part3	*part3	*part2	*part2	*part2	*part1	*part1	*part1
*staff3	*staff3	*staff3	*staff2	*staff2	*staff2	*staff1	*staff1	*staff1
*I"[Bassus]	*	*	*I"[Tenor]	*	*	*I"[Discantus]	*	*
*I'B	*	*	*I'T	*	*	*I'S	*	*
*ICvox	*	*	*ICvox	*	*	*ICvox	*	*
*Ibass	*	*	*Itenor	*	*	*Isoprn	*	*
*clefF4	*	*	*clefC4	*	*	*clefC3	*	*
*G:mix	*	*	*G:mix	*	*	*G:mix	*	*
*k[]	*	*	*k[]	*	*	*k[]	*	*
*M2/1	*	*	*M2/1	*	*	*M2/1	*	*
=1	=1	=1	=1	=1	=1	=1	=1	=1
1G	Al-	.	1G	Al-	.	1d	Al-	.
*	*	*	*lig	*	*	*	*	*
2G\	-le-	.	1E	-le-	.	2e\	-le-	.
2E/	.	.	.	.	.	2g\	.	.
=2	=2	=2	=2	=2	=2	=2	=2	=2
1D	.	.	1F	.	.	1f	.	.
*	*	*	*Xlig	*	*	*	*	*
2C/	.	.	0G	.	.	2e/	.	.
1G	.	.	.	.	.	1d	.	.
=3	=3	=3	=3	=3	=3	=3	=3	=3
.	.	.	.	.	.	.	.	.
!LO:SIC:v:t=custos D	!	!	!	!	!	!	!	!
2E/	.	.	.	.	.	1g	.	.
*	*	*	*lig	*	*	*	*	*
!LO:LB:g=original	!	!	!	!	!	!	!	!
1D	.	.	1A	.	.	.	.	.
!	!	!	!	!	!	!LO:SIC:v:t=custos g	!	!
.	.	.	.	.	.	2f\	.	.
!	!	!	!	!	!	!LO:LB:g=original	!	!
=4	=4	=4	=4	=4	=4	=4	=4	=4
1C	.	.	1c	.	.	1g	.	.
*lig	*	*	*Xlig	*	*	*	*	*
1G	-lu-	.	0B	.	.	2d/	.	.
.	.	.	.	.	.	1e	.	.
=5	=5	=5	=5	=5	=5	=5	=5	=5
1D	.	.	.	.	.	.	.	.
.	.	.	.	.	.	1d	.	.
*Xlig	*	*	*	*	*	*	*	*
*lig	*	*	*	*	*	*	*	*
1E	.	.	0G	.	.	.	.	.
.	.	.	.	.	.	2c/	.	.
=6	=6	=6	=6	=6	=6	=6	=6	=6
1D	.	.	.	.	.	1e	.	.
*Xlig	*	*	*lig	*	*	*	*	*
2C/	.	.	1A	.	.	2e/	.	.
2D/	.	.	.	.	.	2d/	.	.
=7	=7	=7	=7	=7	=7	=7	=7	=7
!	!	!	!LO:SIC:v:t=custos G	!	!	!	!	!
2E/	.	.	1G	-lu-	.	2B/	-lu-	.
2C/	-ia	.	.	.	.	1c	-ia	.
!	!	!	!LO:LB:g=original	!	!	!	!	!
*	*ij	*	*Xlig	*	*	*	*ij	*
1G	Al-	.	0G	-ia	.	.	.	.
.	.	.	.	.	.	2B/	Al-	.
=8	=8	=8	=8	=8	=8	=8	=8	=8
2C/	-le-	.	.	.	.	2c/	-le-	.
1G	.	.	.	.	.	2B/	.	.
*	*	*	*lig	*ij	*	*	*	*
.	.	.	1A	Al-	.	2A/	.	.
!	!	!	!	!	!	!LO:SIC:v:t=custos B	!	!
2F/	.	.	.	.	.	2c/	.	.
!	!	!	!	!	!	!LO:LB:g=original	!	!
=9	=9	=9	=9	=9	=9	=9	=9	=9
*lig	*	*	*	*	*	*	*	*
1G	.	.	1E	-le-	.	1B	.	.
*	*	*	*Xlig	*	*	*	*	*
!LO:SIC:v:t=custos E	!	!	!	!	!	!	!	!
1A	.	.	1F	.	.	2A/	.	.
.	.	.	.	.	.	1c	.	.
!LO:LB:g=original	!	!	!	!	!	!	!	!
*Xlig	*	*	*	*	*	*	*	*
=10	=10	=10	=10	=10	=10	=10	=10	=10
*lig	*	*	*lig	*	*	*	*	*
1E	.	.	1G	.	.	.	.	.
.	.	.	.	.	.	2B/	.	.
1F	.	.	1D	.	.	1d	.	.
*Xlig	*	*	*Xlig	*	*	*	*	*
=11	=11	=11	=11	=11	=11	=11	=11	=11
*lig	*	*	*	*	*	*	*	*
1G	.	.	1G	.	.	2B/	.	.
.	.	.	.	.	.	2G/	.	.
1D	.	.	1F	.	.	1d	.	.
*Xlig	*	*	*	*	*	*	*	*
=12	=12	=12	=12	=12	=12	=12	=12	=12
1G	.	.	1E	.	.	2B/	.	.
.	.	.	.	.	.	2e/	.	.
*	*	*	*lig	*	*	*	*	*
1F	.	.	1F	.	.	2c/	.	.
.	.	.	.	.	.	1d	.	.
=13	=13	=13	=13	=13	=13	=13	=13	=13
2F\	.	.	1D	.	.	.	.	.
2E/	.	.	.	.	.	1c	.	.
*	*	*	*Xlig	*	*	*	*	*
1D	.	.	1D	.	.	.	.	.
.	.	.	.	.	.	2B/	.	.
=14	=14	=14	=14	=14	=14	=14	=14	=14
*	*	*	*	*	*	*lig	*	*
2C/	.	.	1E	.	.	1c	.	.
1c	.	.	.	.	.	.	.	.
.	.	.	1F	.	.	1A	.	.
2c\	.	.	.	.	.	.	.	.
*	*	*	*	*	*	*Xlig	*	*
=15	=15	=15	=15	=15	=15	=15	=15	=15
!	!	!	!	!	!	!LO:SIC:v:t=custos g	!	!
1B	.	.	1G	.	.	2G/	.	.
!	!	!	!	!	!	!LO:LB:g=original	!	!
.	.	.	.	.	.	1g	.	.
!	!	!	!LO:SIC:v:t=custos G	!	!	!	!	!
2A\	.	.	1A	.	.	.	.	.
1c	.	.	.	.	.	1f	.	.
!	!	!	!LO:LB:g=original	!	!	!	!	!
=16	=16	=16	=16	=16	=16	=16	=16	=16
.	.	.	0G	.	.	.	.	.
2B\	.	.	.	.	.	2e\	.	.
!LO:SIC:v:t=custos A	!	!	!	!	!	!	!	!
1c	.	.	.	.	.	1f	.	.
!LO:LB:g=original	!	!	!	!	!	!	!	!
*clefF3	*	*	*	*	*	*	*	*
=17	=17	=17	=17	=17	=17	=17	=17	=17
*	*	*	*lig	*	*	*	*	*
2A/	.	.	1A	.	.	2e\	.	.
1F	.	.	.	.	.	2f\	.	.
.	.	.	1c	.	.	1g	.	.
2E/	.	.	.	.	.	.	.	.
*	*	*	*Xlig	*	*	*	*	*
=18	=18	=18	=18	=18	=18	=18	=18	=18
*	*	*	*lig	*	*	*	*	*
1F	.	.	1A	.	.	2c/	.	.
.	.	.	.	.	.	2d/	.	.
1C	.	.	1c	.	.	2e/	.	.
.	.	.	.	.	.	1g	.	.
*	*	*	*Xlig	*	*	*	*	*
=19	=19	=19	=19	=19	=19	=19	=19	=19
1D	-lu-	.	1A	-lu-	.	.	.	.
.	.	.	.	.	.	2f\	-lu-	.
!LO:SIC:v:t=custos G	!	!	!	!	!	!LO:SIC:v:t=custos g	!	!
!LO:N:vis=00	!	!	!	!	!	!	!	!
!	!	!	!LO:N:vis=00	!	!	!	!	!
!	!	!	!	!	!	!LO:N:vis=00	!	!
1GG;	-ia	.	1G;	-ia	.	1g;>\	-ia	.
*	*Xij	*	*	*Xij	*	*	*Xij	*
!LO:LB:g=original	!	!	!	!	!	!LO:LB:g=original	!	!
=20||	=20||	=20||	=20||	=20||	=20||	=20||	=20||	=20||
1G	A-	.	1G	A-	.	0g	A-	.
*	*	*	*lig	*	*	*	*	*
2B\	.	.	1E	-ve	.	.	.	.
1c	.	.	.	.	.	.	.	.
=21	=21	=21	=21	=21	=21	=21	=21	=21
.	.	.	1F	.	.	1f	.	.
2A/	-ve	.	.	.	.	.	.	.
*	*	*	*Xlig	*	*	*	*	*
1B	.	.	1G	.	.	1d	-ve	.
=22	=22	=22	=22	=22	=22	=22	=22	=22
*	*	*	*lig	*	*	*	*	*
2E/	ple-	Ma-	1G	ple-	Ma-	1e	gra-	Ma-
1G	.	.	.	.	.	.	.	.
.	.	.	1A	.	.	2e/	.	.
2F/	.	.	.	.	.	2f/	.	.
*	*	*	*Xlig	*	*	*	*	*
=23	=23	=23	=23	=23	=23	=23	=23	=23
!	!	!	!LO:SIC:v:t=custos B	!	!	!	!	!
2E/	.	.	0B	-na	-ri-	2g\	.	.
2D/	.	.	.	.	.	2d/	.	.
2C/	.	.	.	.	.	2e/	.	.
!LO:SIC:v:t=custos B	!	!	!	!	!	!	!	!
2D/	.	.	.	.	.	2f/	-ci-	-ri-
!LO:LB:g=original	!	!	!LO:LB:g=original	!	!	!	!	!
*clefF4	*	*	*	*	*	*	*	*
=24	=24	=24	=24	=24	=24	=24	=24	=24
1BB	-na	-ri-	1B	.	.	1d	-a	-a
2AA/	.	-a	1c	gra-	.	1c	ple-	gra-
1A	gra-	.	.	.	.	.	.	.
=25	=25	=25	=25	=25	=25	=25	=25	=25
*	*	*	*	*	*	*lig	*	*
.	.	.	0B	-ci-	.	1g	.	.
1G	.	.	.	.	.	.	.	.
!	!	!	!	!	!	!LO:SIC:v:t=custos d	!	!
.	.	.	.	.	.	1a	.	.
2F\	.	.	.	.	.	.	.	.
*	*	*	*	*	*	*Xlig	*	*
!	!	!	!	!	!	!LO:LB:g=original	!	!
=26	=26	=26	=26	=26	=26	=26	=26	=26
*	*	*	*lig	*	*	*	*	*
2G\	-ci-	.	1G	.	.	2d/	.	.
2E/	.	.	.	.	.	1g	.	.
1D	.	.	1A	.	.	.	.	.
.	.	.	.	.	.	2f\	-na	-ti-
*	*	*	*Xlig	*	*	*	*	*
=27	=27	=27	=27	=27	=27	=27	=27	=27
2GG/	-a	.	1G	-a	-a	1g	.	-a
1C	be-	ple-	.	.	.	.	.	.
.	.	.	0G	be-	gra-	2e/	be-	ple-
2D/	-ne-	.	.	.	.	1d	.	.
=28	=28	=28	=28	=28	=28	=28	=28	=28
1E	.	.	.	.	.	.	.	.
.	.	.	.	.	.	2c/	-ne-	.
!LO:SIC:v:t=custos d	!	!	!	!	!	!	!	!
2D/	.	.	1F	.	.	1d	.	.
*clefF3	*	*	*	*	*	*	*	*
!LO:LB:g=original	!	!	!	!	!	!	!	!
1d	.	.	.	.	.	.	.	.
=29	=29	=29	=29	=29	=29	=29	=29	=29
.	.	.	1E	.	.	1e	.	.
2c\	.	.	.	.	.	.	.	.
2B\	.	.	1D	.	.	1f	.	.
1A	.	.	.	.	.	.	.	.
=30	=30	=30	=30	=30	=30	=30	=30	=30
*	*	*	*lig	*	*	*	*	*
.	.	.	1E	-ne-	.	1e	.	-na
2G/	.	.	.	.	.	.	.	.
2F/	.	.	1F	.	-ti-	2A/	.	Do-
2D/	.	.	.	.	.	1d	.	.
*	*	*	*Xlig	*	*	*	*	*
=31	=31	=31	=31	=31	=31	=31	=31	=31
1E	.	.	1G	.	-a	.	.	.
!	!	!	!	!	!	!LO:SIC:v:t=custos d	!	!
.	.	.	.	.	.	2c/	.	.
!	!	!	!	!	!	!LO:LB:g=original	!	!
1D	.	.	1F	-di-	ple-	1d	.	.
=32	=32	=32	=32	=32	=32	=32	=32	=32
*	*	*	*lig	*	*	*	*	*
2D/	-di-	-na	1A	.	.	2f\	-di-	.
2C/	.	.	.	.	.	2e\	.	.
*clefF4	*	*	*	*	*	*	*	*
!	!	!	!LO:SIC:v:t=custos c	!	!	!	!	!
2BB/	.	Do-	1B	.	.	2d/	.	.
2GG/	.	.	.	.	.	1g	.	.
!	!	!	!LO:LB:g=original	!	!	!	!	!
*	*	*	*Xlig	*	*	*	*	*
=33	=33	=33	=33	=33	=33	=33	=33	=33
!LO:SIC:v:t=custos GG	!	!	!	!	!	!	!	!
1AA	.	.	0c	.	.	.	.	.
.	.	.	.	.	.	2f\	.	-mi-
!LO:LB:g=original	!	!	!	!	!	!	!	!
2GG/	.	.	.	.	.	1g	-cta	-nus
2G\	.	.	.	.	.	.	.	.
=34	=34	=34	=34	=34	=34	=34	=34	=34
2E/	.	.	0c	.	.	2g\	.	te-
2C/	.	.	.	.	.	2e/	.	.
2D/	.	.	.	.	.	2d/	.	.
2E/	.	.	.	.	.	2g\	.	.
=35	=35	=35	=35	=35	=35	=35	=35	=35
1F	.	.	0A	.	.	2c/	.	.
.	.	.	.	.	.	2d/	.	.
!	!	!	!	!	!	!LO:SIC:v:t=custos f	!	!
2E/	.	.	.	.	.	1e	.	.
2C/	.	.	.	.	.	.	.	.
!	!	!	!	!	!	!LO:LB:g=original	!	!
=36	=36	=36	=36	=36	=36	=36	=36	=36
*	*	*	*lig	*	*	*	*	*
1D	-cta	-mi-	1F	.	.	2f\	.	.
.	.	.	.	.	.	1d	.	.
1D	.	-nus	1A	.	.	.	.	.
.	.	.	.	.	.	2d/	.	-cu(m)
*	*	*	*Xlig	*	*	*	*	*
=37	=37	=37	=37	=37	=37	=37	=37	=37
1GG	.	.	2G/	-cta	-na	1B	.	be-
.	.	.	2G/	.	.	.	.	.
1G	ma-	te-	0d	Ma-	Do-	2G/	Ma-	-ne-
.	.	.	.	.	.	1g	.	.
=38	=38	=38	=38	=38	=38	=38	=38	=38
2E/	.	.	.	.	.	.	.	.
2F/	.	.	.	.	.	1e	.	.
!LO:SIC:v:t=custos G	!	!	!	!	!	!	!	!
2D/	.	.	0c	.	.	.	.	.
!LO:LB:g=original	!	!	!	!	!	!	!	!
2G\	.	.	.	.	.	2d/	.	.
=39	=39	=39	=39	=39	=39	=39	=39	=39
2E/	.	.	.	.	.	2e/	.	.
2F/	.	.	.	.	.	2c/	.	.
2D/	.	.	0B	.	.	2d/	.	.
1G	-ri-	.	.	.	.	2G/	.	-di-
=40	=40	=40	=40	=40	=40	=40	=40	=40
.	.	.	.	.	.	1A	-ri-	.
2F/	-a	-cum	.	.	.	.	.	.
!	!	!	!	!	!	!LO:SIC:v:t=custos c	!	!
2G\	.	.	1G	.	-mi-	1B	-a	.
2GG/	.	.	.	.	.	.	.	.
!	!	!	!	!	!	!LO:LB:g=original	!	!
=41	=41	=41	=41	=41	=41	=41	=41	=41
*	*	*	*lig	*	*	*	*	*
1AA	.	.	1F	-ri-	-nus	1c	.	.
2GG/	.	.	1G	.	.	2B/	.	.
2C/	.	.	.	.	.	2c/	.	.
*	*	*	*Xlig	*	*	*	*	*
=42	=42	=42	=42	=42	=42	=42	=42	=42
2BB/	.	.	1G	-a	te-	2d/	.	.
2C/	.	.	.	.	.	2e/	.	.
*	*	*	*lig	*	*	*	*	*
2GG/	.	be-	1G	Do-	.	2d/	do-	-cta
1G	do-	-ne-	.	.	.	2c/	.	.
=43	=43	=43	=43	=43	=43	=43	=43	=43
.	.	.	1A	.	.	1d	.	.
!LO:SIC:v:t=custos G	!	!	!	!	!	!	!	!
2F/	.	.	.	.	.	.	.	.
!LO:LB:g=original	!	!	!	!	!	!	!	!
*	*	*	*Xlig	*	*	*	*	*
*clefF3	*	*	*lig	*	*	*	*	*
1G	.	.	1E	.	-cum	2e/	.	.
.	.	.	.	.	.	1c	.	.
=44	=44	=44	=44	=44	=44	=44	=44	=44
*lig	*	*	*	*	*	*	*	*
!	!	!	!LO:SIC:v:t=custos G	!	!	!	!	!
1A	.	.	1F	.	be-	.	.	.
.	.	.	.	.	.	2A/	.	.
!	!	!	!LO:LB:g=original	!	!	!	!	!
*	*	*	*Xlig	*	*	*	*	*
*	*	*	*lig	*	*	*	*	*
1E	.	.	1G	.	-ne-	1e	.	.
*Xlig	*	*	*	*	*	*	*	*
=45	=45	=45	=45	=45	=45	=45	=45	=45
1G	.	.	1D	.	.	1d	.	.
*	*	*	*Xlig	*	*	*	*	*
!	!	!	!	!	!	!LO:SIC:v:t=custos e	!	!
1A	.	.	0G	.	-di-	2d/	.	tu
!	!	!	!	!	!	!LO:LB:g=original	!	!
.	.	.	.	.	.	1e	.	be-
=46	=46	=46	=46	=46	=46	=46	=46	=46
2C/	.	-di-	.	.	.	.	.	-ne-
2E/	.	.	.	.	.	1c	-mi-	.
1D	.	-cta	1F	.	.	.	.	.
.	.	.	.	.	.	2B/	.	.
=47	=47	=47	=47	=47	=47	=47	=47	=47
2C/	.	.	1E	.	.	2c/	.	.
2G/	.	.	.	.	.	2B/	.	.
1A	.	.	1F	.	-cta	1A	.	.
=48	=48	=48	=48	=48	=48	=48	=48	=48
2B\	.	.	0D	.	.	2F/	.	-di-
1c	-mi-	.	.	.	.	1G	.	-cta
2B\	.	.	.	.	.	2F/	.	.
=49	=49	=49	=49	=49	=49	=49	=49	=49
!LO:SIC:v:t=custos A	!	!	!	!	!	!	!	!
*	*	*	*lig	*	*	*	*	*
1c	-nus	tu	1E	.	.	2G/	.	.
.	.	.	.	.	.	1c	-mi-	tu
!LO:LB:g=original	!	!	!	!	!	!	!	!
2A\	.	in	1F	.	.	.	.	.
1F	.	mu-	.	.	.	2B/	.	.
*	*	*	*Xlig	*	*	*	*	*
=50	=50	=50	=50	=50	=50	=50	=50	=50
*	*	*	*lig	*	*	*	*	*
.	.	.	1G	.	.	1c	.	in
2E/	.	-li-	.	.	.	.	.	.
!	!	!	!	!	!	!LO:SIC:v:t=custos e	!	!
2D/	.	-e-	1A	.	.	2d/	.	.
!	!	!	!	!	!	!LO:LB:g=original	!	!
2C/	.	.	.	.	.	2e/	.	.
*	*	*	*Xlig	*	*	*	*	*
=51	=51	=51	=51	=51	=51	=51	=51	=51
*	*	*	*lig	*	*	*	*	*
2D/	.	.	1F	-mi-	.	1f	.	mu-
1d	te-	.	.	.	.	.	.	.
.	.	.	1G	.	tu	1e	-nus	-li-
2c\	.	.	.	.	.	.	.	.
*	*	*	*Xlig	*	*	*	*	*
=52	=52	=52	=52	=52	=52	=52	=52	=52
2B\	.	.	1G	-nus	.	1g	.	-e-
2A/	.	.	.	.	.	.	.	.
*	*	*	*lig	*	*	*	*	*
1G	.	.	1G	te-	in	1g	te-	.
=53	=53	=53	=53	=53	=53	=53	=53	=53
*lig	*	*	*	*	*	*	*	*
!	!	!	!LO:SIC:v:t=custos c	!	!	!	!	!
1c	.	.	1A	.	.	2c/	.	.
.	.	.	.	.	.	1f	.	.
!	!	!	!LO:LB:g=original	!	!	!	!	!
*	*	*	*Xlig	*	*	*	*	*
*	*	*	*lig	*	*	*	*	*
1A	.	.	1c	.	mu-	.	.	.
.	.	.	.	.	.	2e/	.	.
*Xlig	*	*	*	*	*	*	*	*
=54	=54	=54	=54	=54	=54	=54	=54	=54
*lig	*	*	*	*	*	*	*	*
1F	.	.	1A	.	-li-	1f	.	.
*	*	*	*Xlig	*	*	*	*	*
1G	.	.	1B	.	-e-	2d/	.	.
.	.	.	.	.	.	1g	.	.
*Xlig	*	*	*	*	*	*	*	*
=55	=55	=55	=55	=55	=55	=55	=55	=55
1D	-cum	-ri-	1A	.	-ri-	.	.	.
.	.	.	.	.	.	2f\	.	.
[1GGl	.	-bus	[1Gl	-cum	-b(us)	1g	.	-ri-
=56	=56	=56	=56	=56	=56	=56	=56	=56
!	!	!	!	!	!	!LO:N:vis=00	!	!
0GG;]	.	.	0G;]	.	.	0d;/	-cum	-bus
==	==	==	==	==	==	==	==	==
*-	*-	*-	*-	*-	*-	*-	*-	*-
!!!system-decoration: [(s1,s2,s3)]
!!!ENC:Anastazja Marusiak
!!!END:2022-14-01
!!!ENC:Natalia Wrzos
!!!END:2022-01-25
!!!RDF**kern: l = terminal long
!!!RDF**kern: < = above
!!!RDF**kern: > = below
